X: 1
T: Domhnall Mac 'ic Lain
M: 4/4
L: 1/8
R: reel
K: Dmaj
F|A2 AEFD DB| ABAF (3GFE EF| A2 AEFD DB| ABAF E2 EF|
A2 AEFD DB| ABAF (3GFE EF| A2 AEFD DB| ABdB A2 AG|
FGFE F2 Fd|cdBc ABFE|FGFE F2 Fd| (3cdc Bc A2 FE|
FGFE F2 Fd| cdBc Aced | FBAE F2 Fd| cdBc A4|
